img/footer/icon/instagram.svg

<svg width="20" height="20" viewBox="0 0 20 20" fill="none" xmlns="http://www.w3.org/2000/svg">
<path d="M10 6.75005C8.20507 6.75005 6.75 8.20512 6.75 10C6.75 11.795 8.20507 13.25 10 13.25C11.7949 13.25 13.25 11.795 13.25 10C13.25 8.20512 11.7949 6.75005 10 6.75005Z" fill="#EEEDDE"/>
<path fill-rule="evenodd" clip-rule="evenodd" d="M4.76954 1.08151C8.21766 0.696136 11.7824 0.696136 15.2305 1.08151C17.1289 1.29369 18.6601 2.78947 18.8829 4.69452C19.2952 8.21952 19.2952 11.7806 18.8829 15.3056C18.6601 17.2106 17.1289 18.7064 15.2305 18.9186C11.7824 19.304 8.21766 19.304 4.76954 18.9186C2.87114 18.7064 1.33995 17.2106 1.11713 15.3056C0.704852 11.7806 0.704852 8.21952 1.11713 4.69452C1.33995 2.78947 2.87114 1.29369 4.76954 1.08151ZM15 4.00005C14.4477 4.00005 14 4.44776 14 5.00005C14 5.55233 14.4477 6.00005 15 6.00005C15.5523 6.00005 16 5.55233 16 5.00005C16 4.44776 15.5523 4.00005 15 4.00005ZM5.25 10C5.25 7.37669 7.37665 5.25005 10 5.25005C12.6234 5.25005 14.75 7.37669 14.75 10C14.75 12.6234 12.6234 14.75 10 14.75C7.37665 14.75 5.25 12.6234 5.25 10Z" fill="#EEEDDE"/>
</svg>

<svg xmlns="http://www.w3.org/2000/svg" fill="none" viewBox="0 0 20 20"><path fill="#EEEDDE" d="M10 6.75a3.25 3.25 0 1 0 0 6.5 3.25 3.25 0 0 0 0-6.5z"/><path fill="#EEEDDE" fill-rule="evenodd" d="M4.77 1.082a47.472 47.472 0 0 1 10.46 0c1.899.212 3.43 1.707 3.653 3.613a45.67 45.67 0 0 1 0 10.61c-.223 1.906-1.754 3.401-3.652 3.614a47.468 47.468 0 0 1-10.461 0c-1.899-.213-3.43-1.708-3.653-3.613a45.672 45.672 0 0 1 0-10.611C1.34 2.789 2.871 1.294 4.77 1.082zM15 4a1 1 0 1 0 0 2 1 1 0 0 0 0-2zm-9.75 6a4.75 4.75 0 1 1 9.5 0 4.75 4.75 0 0 1-9.5 0z" clip-rule="evenodd"/></svg>
